packages/kaspersky-hexa-ui-icons/src/iconsSVGs/12/Star.svg

<svg width="12" height="12" viewBox="0 0 12 12" fill="none" xmlns="http://www.w3.org/2000/svg">
<g clip-path="url(#clip0_15956_2080)">
<path fill-rule="evenodd" clip-rule="evenodd" d="M5.21538 0.80458C5.50573 0.106479 6.49467 0.106483 6.78502 0.80458L8.0091 3.74762L11.1864 4.00234C11.94 4.06276 12.2456 5.00329 11.6714 5.49516L9.25067 7.56878L9.99024 10.6692C10.1657 11.4047 9.36561 11.986 8.72038 11.5919L6.0002 9.93038L3.28002 11.5919C2.63479 11.986 1.83472 11.4047 2.01015 10.6692L2.74973 7.56878L0.328992 5.49516C-0.245216 5.00329 0.060385 4.06276 0.814039 4.00234L3.9913 3.74762L5.21538 0.80458ZM6.0002 2.30279L5.03915 4.61343C4.94554 4.83849 4.7339 4.99226 4.49093 5.01174L1.9964 5.21172L3.89697 6.83977C4.08208 6.99833 4.16292 7.24714 4.10637 7.48423L3.52571 9.91848L5.66138 8.61402C5.86939 8.48696 6.131 8.48696 6.33901 8.61402L8.47469 9.91848L7.89403 7.48423C7.83747 7.24714 7.91832 6.99833 8.10343 6.83977L10.004 5.21172L7.50947 5.01174C7.2665 4.99226 7.05486 4.83849 6.96125 4.61343L6.0002 2.30279Z" fill="black"/>
</g>
<defs>
<clipPath id="clip0_15956_2080">
<rect width="12" height="12" fill="white"/>
</clipPath>
</defs>
</svg>

<svg xmlns="http://www.w3.org/2000/svg" width="12" height="12" fill="none" viewBox="0 0 12 12"><path fill="#000" fill-rule="evenodd" d="M5.2151.8045c.2904-.698 1.2793-.698 1.5697 0l1.224 2.943 3.1773.2548c.7537.0604 1.0593 1.001.4851 1.4928L9.2504 7.5687l.7396 3.1005c.1754.7354-.6246 1.3167-1.2699.9226L6 9.9303l-2.7202 1.6615c-.6453.3941-1.4453-.1872-1.2699-.9226l.7396-3.1005L.3287 5.4951c-.5742-.4919-.2686-1.4324.4851-1.4928l3.1773-.2547zM6 2.3027l-.9611 2.3107a.65.65 0 0 1-.5482.3983l-2.4946.2 1.9006 1.628a.65.65 0 0 1 .2094.6445l-.5806 2.4342L5.661 8.614a.65.65 0 0 1 .6777 0l2.1356 1.3044-.5806-2.4342a.65.65 0 0 1 .2094-.6445l1.9006-1.628-2.4946-.2a.65.65 0 0 1-.5482-.3983z"/></svg>
